!!!COM: Bach, Johann Sebastian
!!!CDT: 1685/3//-1750/7/28/
!!!OTL@@DE: Wer nur den lieben Gott laesst walten
!!!SCT: BH 339
!!!SCT: BWV 179
!!!AGN: 4-Part Chorale
**harm	**root	**kern	**kern	**kern	**kern
*	*Iorgan	*Iorgan	*Iorgan	*Iorgan	*Iorgan
!	!	!bass	!tenor	!alto	!soprno
*	*	*clefF4	*clefF4	*clefG2	*clefG2
*M4/4	*M4/4	*M4/4	*M4/4	*M4/4	*M4/4
*met(c)	*met(c)	*met(c)	*met(c)	*met(c)	*met(c)
*MM60	*MM60	*MM60	*MM60	*MM60	*MM60
*k[f#]	*k[f#]	*k[f#]	*k[f#]	*k[f#]	*k[f#]
*e:	*e:	*e:	*e:	*e:	*e:
*>A	*>A	*>A	*>A	*>A	*>A
i	4AA	8E	4G	4B	4B
.	.	8D	.	.	.
=1	=1	=1	=1	=1	=1
VI	4FF	4C	8G	16B	4e
.	.	.	.	16A	.
.	.	.	16F#	4c	.
.	.	.	16E	.	.
V	4EE	4BB	8D#	.	4f#
.	.	.	8B	16B	.
.	.	.	.	16A	.
I	4AA	4EE	4B	8G	4g
.	.	.	.	4e	.
V/V	4BB	4FF#	4A#	.	4f#
.	.	.	.	[8d	.
=2	=2	=2	=2	=2	=2
V7b/IV	4AA	4GG#	4B	8d]	4e
.	.	.	.	16c#	.
.	.	.	.	16B	.
Vb/V	4BB	4AA#	4F#	8c#	4f#
.	.	.	.	8c#	.
V7	2EE	2BB	4.F#	8c#	4.d#
.	.	.	.	8B	.
.	.	.	.	8A	.
.	.	.	8E	8G	8c#
=3	=3	=3	=3	=3	=3
V;	4EE;	4BB;	4D#;	4F#;	4B;
vii/IV	4CC#	4GG#	4BB	8B	4d
.	.	.	.	8A	.
V7/IV	4AA	4EE	4E	4G#	4d
iv	4DD	4C	4E	4A	4c
=4	=4	=4	=4	=4	=4
V7d	8EE	8AA	8D#	8F#	4B
ib	8AA	8GG	8E	8G	.
ii7Dc	8BB	8C	8F#	8A	4e
ic	8AA	8BB	8G	8B	.
vii7D/V	4DD#	4AA#	8G	4c#	4e
.	.	.	8F#	.	.
V	4EE	4BB	4F#	4B	4d#
=5	=5	=5	=5	=5	=5
I	2.AA	2.EE;	2.G#;	2.B;	2.e;
!!linebreak: 2
=:|!	=:|!	=:|!	=:|!	=:|!	=:|!
*>B	*>B	*>B	*>B	*>B	*>B
V	4EE	4BB	4B	4d#	4f#
=6	=6	=6	=6	=6	=6
i	4AA	4E	16B	4e	4g
.	.	.	16G	.	.
.	.	.	4c	.	.
V7/III	4GG	8D	.	4f#	4a
.	.	8C	16B	.	.
.	.	.	16c	.	.
III	4CC	8BB	8G	8g	4b
.	.	8AA	8A	8d	.
III	4CC	4GG	4B	8g	4b
.	.	.	.	8f	.
=7	=7	=7	=7	=7	=7
iv	4DD	8AA	8c	4e	4a
.	.	16BB	8A	.	.
.	.	16C	.	.	.
V7/III	4GG	8D	8d	4f#	4a
.	.	8DD	8c	.	.
III;	4CC;	4GG;	4B;	4d;	4g;
III	4CC	4GG	4G	4d	4b
=8	=8	=8	=8	=8	=8
iv	4DD	4AA	8G	4c	4a
.	.	.	8F#	.	.
vii7D/V	4DD#	4AA#	8E	4c#	4g
.	.	.	16D#	.	.
.	.	.	16E	.	.
V7	4EE	4BB	8BB	4d#	4f#
.	.	.	8A	.	.
VI	4FF	4C	8G	4e	4e
.	.	.	8F#	.	.
=9	=9	=9	=9	=9	=9
vii7D/V	4DD#	8C#	4.E	8A#	4g
.	.	8AA#	.	8c#	.
V7	4EE	8BB	.	8c	4f#
.	.	8BBB	8D#	16B	.
.	.	.	.	16A	.
I;	4AA;	4EE;	4BB;	4G#;	4e;
==	==	==	==	==	==
*-	*-	*-	*-	*-	*-
!!chor2scor: -l 2 -s 0.6 -o %b.pmx
!!!YEC: Copyright 2003 by Craig Stuart Sapp
!!!license: GNU General Public License (http://www.gnu.org/copyleft/gpl.html)
!!!SMA: 371 Bach Chorales, edited by Ludwig Erk, C.F. Peters
!!!PDT: 1850, 1865
!!!ONB: Harmony and Root analysis done manually by Craig Sapp
